picto/toilet-seat-cleaner-framed.svg

<svg class="color-immutable" width="30" height="30" viewBox="0 0 30 30" fill="none" xmlns="http://www.w3.org/2000/svg"><path d="M30.0021 0H0.0020752V30H30.0021V0Z" fill="#2D327D"/><path d="M25.5021 3C26.3271 3 27.0021 3.675 27.0021 4.5V25.5C27.0021 26.325 26.3271 27 25.5021 27H4.50208C3.67708 27 3.00208 26.325 3.00208 25.5V4.5C3.00208 3.675 3.67708 3 4.50208 3H25.5021ZM25.5021 2.625H4.50208C3.4682 2.625 2.62708 3.46613 2.62708 4.5V25.5C2.62708 26.5339 3.4682 27.375 4.50208 27.375H25.5021C26.536 27.375 27.3771 26.5339 27.3771 25.5V4.5C27.3771 3.46613 26.536 2.625 25.5021 2.625Z" fill="white"/><path d="M7.53028 19.1013L5.98926 20.6424L9.33025 23.9834L10.8713 22.4423L7.53028 19.1013Z" fill="white"/><path d="M18.2189 18.4912C18.2197 18.4957 18.2204 18.4995 18.2204 18.504C18.2227 18.5355 18.2249 18.567 18.2249 18.5985C18.2249 19.2615 17.6879 19.7985 17.0249 19.7985H13.5749V19.4235H17.0249C17.4809 19.4235 17.8499 19.0545 17.8499 18.5985C17.8499 18.5632 17.8477 18.528 17.8424 18.4942C17.8259 18.3562 17.7734 18.228 17.6962 18.1207C17.6962 18.1207 17.6962 18.12 17.6954 18.12C17.5439 17.9056 17.2889 17.7723 17.0249 17.7735H14.7224C14.2589 17.7735 13.9634 17.6392 13.6867 17.4982C13.6222 17.4667 13.5532 17.4292 13.4887 17.3985C12.9539 17.1292 12.3629 17.079 11.7652 17.079C11.1232 17.0737 10.4714 17.2155 9.92768 17.5665C9.69218 17.7142 9.46718 17.8987 9.24593 18.123L8.15918 19.2052L10.7602 21.8062L11.2642 21.3L17.0287 21.2947C17.4637 21.2947 17.8552 21.1305 18.1544 20.8605L18.7012 20.3227L18.7957 20.2297L20.5214 18.504C20.0924 18.4905 19.6514 18.486 19.1932 18.486C18.8729 18.486 18.5512 18.4882 18.2189 18.4912Z" fill="white"/><path d="M20.595 15.7118C18.126 15.234 14.763 15.2175 12.6247 15.3488C10.4107 15.4853 9.21299 15.5963 7.44299 15.9083C8.28899 16.314 8.98124 16.7288 9.64124 17.3048C9.83324 17.1758 10.032 17.0685 10.2405 16.9823C10.6965 16.7933 11.196 16.704 11.7652 16.704C12.3472 16.704 13.0275 16.7468 13.6575 17.064C13.722 17.094 13.7917 17.1323 13.8562 17.1638C14.118 17.2973 14.3482 17.3985 14.7225 17.3985H17.0265C17.5155 17.4 17.9377 17.6963 18.123 18.117C18.2137 18.1163 18.3045 18.1155 18.3937 18.1148C18.6607 18.1128 18.9271 18.1106 19.1932 18.111C19.7662 18.111 20.3272 18.1185 20.883 18.1425C21.9172 18.1853 22.9365 18.2865 24 18.5033C22.5577 17.028 21.7702 16.4573 20.595 15.7118Z" fill="white"/><path d="M13.6354 10.497C13.6497 10.4992 13.6639 10.5 13.6782 10.5C13.8252 10.5 13.9534 10.392 13.9752 10.2427C13.9984 10.0785 13.8852 9.92699 13.7209 9.90299C13.5567 9.87974 13.4052 9.99299 13.3812 10.1572C13.358 10.3215 13.4712 10.473 13.6354 10.497Z" fill="white"/><path d="M13.9167 8.54701C13.9309 8.54926 13.9459 8.55001 13.9602 8.55001C14.1064 8.55001 14.2347 8.44201 14.2564 8.29276C14.2797 8.12851 14.1664 7.97701 14.0022 7.95301C13.8387 7.92976 13.6864 8.04301 13.6624 8.20726C13.6393 8.37151 13.7524 8.52301 13.9167 8.54701Z" fill="white"/><path d="M13.3542 12.447C13.3684 12.4493 13.3827 12.45 13.3969 12.45C13.5439 12.45 13.6722 12.342 13.6939 12.1928C13.7172 12.0293 13.6039 11.877 13.4397 11.853C13.2754 11.8298 13.1239 11.943 13.0999 12.1073C13.0768 12.2708 13.1899 12.423 13.3542 12.447Z" fill="white"/><path d="M16.3008 9.90301C16.1366 9.92476 16.0211 10.0755 16.0436 10.2398C16.0638 10.3905 16.1921 10.5 16.3398 10.5C16.3533 10.5 16.3668 10.4993 16.3803 10.497C16.5446 10.4753 16.6601 10.3245 16.6376 10.1603C16.6158 9.99601 16.4651 9.88051 16.3008 9.90301Z" fill="white"/><path d="M16.0384 7.953C15.8741 7.97475 15.7586 8.1255 15.7811 8.28975C15.8014 8.4405 15.9296 8.55 16.0781 8.55C16.0909 8.55 16.1044 8.54925 16.1179 8.547C16.2821 8.52525 16.3976 8.3745 16.3751 8.21025C16.3534 8.046 16.2026 7.9305 16.0384 7.953Z" fill="white"/><path d="M16.5635 11.853C16.3993 11.8747 16.2838 12.0255 16.3063 12.1897C16.3265 12.3405 16.4548 12.45 16.6025 12.45C16.616 12.45 16.6295 12.4492 16.643 12.447C16.8073 12.4252 16.9228 12.2745 16.9003 12.1102C16.8785 11.946 16.7278 11.8305 16.5635 11.853Z" fill="white"/><path d="M14.9907 13.4633C15.1564 13.4633 15.2907 13.3289 15.2907 13.1633C15.2907 12.9976 15.1564 12.8633 14.9907 12.8633C14.825 12.8633 14.6907 12.9976 14.6907 13.1633C14.6907 13.3289 14.825 13.4633 14.9907 13.4633Z" fill="white"/><path d="M14.9907 9.63976C15.1564 9.63976 15.2907 9.50545 15.2907 9.33976C15.2907 9.17408 15.1564 9.03976 14.9907 9.03976C14.825 9.03976 14.6907 9.17408 14.6907 9.33976C14.6907 9.50545 14.825 9.63976 14.9907 9.63976Z" fill="white"/><path d="M14.9907 11.5515C15.1564 11.5515 15.2907 11.4172 15.2907 11.2515C15.2907 11.0858 15.1564 10.9515 14.9907 10.9515C14.825 10.9515 14.6907 11.0858 14.6907 11.2515C14.6907 11.4172 14.825 11.5515 14.9907 11.5515Z" fill="white"/><path d="M15.8159 6.6C15.9816 6.6 16.1159 6.46569 16.1159 6.3C16.1159 6.13431 15.9816 6 15.8159 6C15.6502 6 15.5159 6.13431 15.5159 6.3C15.5159 6.46569 15.6502 6.6 15.8159 6.6Z" fill="white"/><path d="M14.2407 6.6C14.4064 6.6 14.5407 6.46569 14.5407 6.3C14.5407 6.13431 14.4064 6 14.2407 6C14.075 6 13.9407 6.13431 13.9407 6.3C13.9407 6.46569 14.075 6.6 14.2407 6.6Z" fill="white"/><path d="M14.9907 7.725C15.1564 7.725 15.2907 7.59069 15.2907 7.425C15.2907 7.25931 15.1564 7.125 14.9907 7.125C14.825 7.125 14.6907 7.25931 14.6907 7.425C14.6907 7.59069 14.825 7.725 14.9907 7.725Z" fill="white"/></svg>

<svg class="color-immutable" width="30" height="30" viewBox="0 0 30 30" fill="none" xmlns="http://www.w3.org/2000/svg"><g clip-path="url(#a)"><path d="M30.002 0h-30v30h30V0Z" fill="#2D327D"/><path d="M25.502 3c.825 0 1.5.675 1.5 1.5v21c0 .825-.675 1.5-1.5 1.5h-21c-.825 0-1.5-.675-1.5-1.5v-21c0-.825.675-1.5 1.5-1.5h21Zm0-.375h-21A1.877 1.877 0 0 0 2.627 4.5v21c0 1.034.841 1.875 1.875 1.875h21a1.877 1.877 0 0 0 1.875-1.875v-21a1.877 1.877 0 0 0-1.875-1.875Z" fill="#fff"/><path d="m7.53 19.101-1.54 1.541 3.34 3.341 1.541-1.54-3.34-3.342ZM18.219 18.491l.001.013a1.2 1.2 0 0 1-1.196 1.294h-3.45v-.374h3.45a.825.825 0 0 0 .672-1.303v-.001a.826.826 0 0 0-.671-.347h-2.303c-.463 0-.759-.134-1.035-.275-.065-.031-.134-.069-.198-.1-.535-.269-1.126-.319-1.724-.319-.642-.005-1.294.136-1.837.488-.236.147-.46.332-.682.556l-1.087 1.082 2.601 2.601.504-.506 5.765-.005a1.67 1.67 0 0 0 1.125-.435l.547-.537.095-.093 1.725-1.726a42.32 42.32 0 0 0-1.328-.018c-.32 0-.642.002-.974.005Z" fill="#fff"/><path d="M20.595 15.712c-2.469-.478-5.832-.495-7.97-.363-2.214.136-3.412.247-5.182.56.846.405 1.538.82 2.198 1.396a3.4 3.4 0 0 1 .6-.323c.456-.189.955-.278 1.524-.278.582 0 1.262.043 1.893.36.064.03.134.068.198.1.262.133.492.234.867.234h2.303c.49.002.912.298 1.097.719l.27-.002c.268-.002.534-.004.8-.004.573 0 1.134.008 1.69.031 1.034.043 2.053.145 3.117.361-1.442-1.475-2.23-2.046-3.405-2.791ZM13.635 10.497a.3.3 0 0 0 .085-.594.3.3 0 0 0-.085.594ZM13.917 8.547a.3.3 0 1 0 0 0ZM13.354 12.447a.3.3 0 1 0 .084-.595.3.3 0 0 0-.084.595ZM16.3 9.903a.3.3 0 1 0 .08.595.3.3 0 0 0-.08-.595ZM16.038 7.953a.3.3 0 1 0 .08.594.3.3 0 0 0-.08-.594ZM16.564 11.853a.3.3 0 1 0 .08.595.3.3 0 0 0-.08-.595ZM14.99 13.463a.3.3 0 1 0 0-.6.3.3 0 0 0 0 .6ZM14.99 9.64a.3.3 0 1 0 0-.6.3.3 0 0 0 0 .6ZM14.99 11.552a.3.3 0 1 0 0-.6.3.3 0 0 0 0 .6ZM15.816 6.6a.3.3 0 1 0 0-.6.3.3 0 0 0 0 .6ZM14.24 6.6a.3.3 0 1 0 0-.6.3.3 0 0 0 0 .6ZM14.99 7.725a.3.3 0 1 0 0-.6.3.3 0 0 0 0 .6Z" fill="#fff"/></g><defs><clipPath id="a"><path fill="#fff" d="M0 0h30v30H0z"/></clipPath></defs></svg>
